!!!OTL: Muede kehrt ein Wanderer zurueck nach seiner Heimat seiner Liebe Glueck
!!!ARE: Europa, Mitteleuropa, Oesterreich, Tirol, Schwaz
!!!SCT: D1016
!!!YEM: Copyright 1995, estate of Helmut Schaffrath.
**kern
*ICvox
*Ivox
*M4/4
*k[f#]
*G:
{8.b
16a
=1
4.g
8g
8g
8f#
8g
8b
=2
2d
8r}
{8g
8f#
8g
=3
4.a
8g
8f#
8a
8.ee
16dd
=4
2b
8r}
{8g
8g
8a
=5
4.b
8dd
8cc
8b
8a
8g
=6
2e
8r}
{8g
8f#
8e
=7
4.d
8g
8.f#
16a
8.cc
16b
=8
2g
8r}
{8g
8g
8a
=9
4.b
8dd
8cc
8b
8a
8g
=10
2e
8r}
{8g
8f#
8e
=11
4.d
8g
8.f#
16a
8.cc
16b
=12
2g
4ff//#
16ff>>#}
==
!!!AGN: Liebes - Lied
!! DVA-Signatur A 188 520
!!!ONB: ESAC (Essen Associative Code) Database: DVA
!!!AMT: simple quadruple
!!!AIN: vox
!!!EED: Helmut Schaffrath
!!!EEV: 1.0
*-
